video-4k-box.svg

<svg fill="currentColor" viewBox="0 0 24 24"><path d="M19 3H5a2 2 0 0 0-2 2v14a2 2 0 0 0 2 2h14a2 2 0 0 0 2-2V5a2 2 0 0 0-2-2m-7 10.5h-1V15H9.5v-1.5h-3V9H8v3h1.5V9H11v3h1zm6 1.5h-1.8l-1.8-2.2V15H13V9h1.5v2.2L16.2 9H18l-2.2 3z"/></svg>

<svg  viewBox="0 0 24 24" fill="currentColor"><path  d="M19,3H5A2,2 0 0,0 3,5V19A2,2 0 0,0 5,21H19A2,2 0 0,0 21,19V5A2,2 0 0,0 19,3M12,13.5H11V15H9.5V13.5H6.5V9H8V12H9.5V9H11V12H12V13.5M18,15H16.2L14.4,12.8V15H13V9H14.5V11.2L16.2,9H18L15.8,12L18,15Z"/></svg>
